SVG_Azure_All/Azure Batch.svg

<?xml version="1.0" encoding="UTF-8" standalone="no"?>
<!-- Generated by Microsoft Visio, SVG Export Azure Batch.svg Page-1 -->

<svg
   xmlns:dc="http://purl.org/dc/elements/1.1/"
   xmlns:cc="http://creativecommons.org/ns#"
   xmlns:rdf="http://www.w3.org/1999/02/22-rdf-syntax-ns#"
   xmlns:svg="http://www.w3.org/2000/svg"
   xmlns="http://www.w3.org/2000/svg"
   xmlns:sodipodi="http://sodipodi.sourceforge.net/DTD/sodipodi-0.dtd"
   xmlns:inkscape="http://www.inkscape.org/namespaces/inkscape"
   width="0.78738832in"
   height="0.7829321in"
   viewBox="0 0 56.691958 56.371251"
   xml:space="preserve"
   class="st9"
   version="1.1"
   id="svg136"
   sodipodi:docname="Azure Batch.svg"
   style="font-size:12px;overflow:visible;color-interpolation-filters:sRGB;fill:none;fill-rule:evenodd;stroke-linecap:square;stroke-miterlimit:3"
   inkscape:version="0.92.5 (2060ec1f9f, 2020-04-08)"><metadata
   id="metadata142"><rdf:RDF><cc:Work
       rdf:about=""><dc:format>image/svg+xml</dc:format><dc:type
         rdf:resource="http://purl.org/dc/dcmitype/StillImage" /></cc:Work></rdf:RDF></metadata><defs
   id="defs140" /><sodipodi:namedview
   pagecolor="#ffffff"
   bordercolor="#666666"
   borderopacity="1"
   objecttolerance="10"
   gridtolerance="10"
   guidetolerance="10"
   inkscape:pageopacity="0"
   inkscape:pageshadow="2"
   inkscape:window-width="640"
   inkscape:window-height="480"
   id="namedview138"
   showgrid="false"
   inkscape:zoom="1.8365233"
   inkscape:cx="37.795184"
   inkscape:cy="18.464155"
   inkscape:window-x="0"
   inkscape:window-y="0"
   inkscape:window-maximized="0"
   inkscape:current-layer="svg136" />
	<style
   type="text/css"
   id="style2">
	<![CDATA[
		.st1 {fill:#177acd;stroke:none;stroke-linecap:butt;stroke-width:0.100536}
		.st2 {fill:#ffffff;stroke:none;stroke-linecap:butt;stroke-width:0.0943546}
		.st3 {fill:#a7a8a9;stroke:none;stroke-linecap:butt;stroke-width:0.0847624}
		.st4 {fill:#ffffff;fill-opacity:0.2;stroke:none;stroke-linecap:butt;stroke-width:0.0955156}
		.st5 {fill:#ffffff;stroke:none;stroke-linecap:butt;stroke-width:0.109072}
		.st6 {fill:#ffffff;stroke:none;stroke-linecap:butt;stroke-width:0.0772262}
		.st7 {fill:#509ccc;stroke:none;stroke-linecap:butt;stroke-width:0.100536}
		.st8 {fill:#59afd5;stroke:none;stroke-linecap:butt;stroke-width:0.100536}
		.st9 {fill:none;fill-rule:evenodd;font-size:12px;overflow:visible;stroke-linecap:square;stroke-miterlimit:3}
	]]>
	</style>

	<g
   id="g134"
   transform="translate(-5.6693772,-5.6659)">
		<title
   id="title4">Page-1</title>
		<g
   id="group8442-1"
   transform="translate(5.66929,-34.0157)">
			<title
   id="title6">Azure Batch</title>
			<g
   id="shape8443-2"
   transform="translate(0,-22.4809)">
				<title
   id="title8">path7</title>
				<path
   d="M 32.25,68.7 H 0 v 25.99 c 0,0.41 0.16,0.81 0.44,1.12 l -0.01,0.01 c 0.04,0.04 0.09,0.09 0.14,0.11 0.29,0.28 0.68,0.45 1.13,0.45 h 33.52 c 0.85,0 1.7,-0.7 1.7,-1.7 V 68.7 Z"
   class="st1"
   id="path10"
   inkscape:connector-curvature="0"
   style="fill:#177acd;stroke:none;stroke-width:0.100536;stroke-linecap:butt" />
			</g>
			<g
   id="shape8444-4"
   transform="translate(16.173,-28.0231)">
				<title
   id="title13">path9</title>
				<path
   d="m 0,84.02 h 14.84 v 2.9 H 0 Z m 0,9.46 h 14.84 v 2.9 H 0 Z"
   class="st2"
   id="path15"
   inkscape:connector-curvature="0"
   style="fill:#ffffff;stroke:none;stroke-width:0.0943546;stroke-linecap:butt" />
			</g>
			<g
   id="shape8445-6"
   transform="translate(0,-50.1584)">
				<title
   id="title18">path17</title>
				<path
   d="m 4.68,96.38 h 32.23 v -5.33 c 0,-0.6 -0.7,-1.21 -1.7,-1.21 H 1.7 c -0.85,0 -1.7,0.5 -1.7,1.21 v 5.33 z"
   class="st3"
   id="path20"
   inkscape:connector-curvature="0"
   style="fill:#a7a8a9;stroke:none;stroke-width:0.0847624;stroke-linecap:butt" />
			</g>
			<g
   id="shape8446-8"
   transform="translate(0.0246706,-21.7456)">
				<title
   id="title23">path23</title>
				<path
   d="M 28.15,67.97 H 0 v 26.87 c 0,0.43 0.15,0.88 0.42,1.21 0.26,0.33 31.8,-28.08 31.8,-28.08 z"
   class="st4"
   id="path25"
   inkscape:connector-curvature="0"
   style="fill:#ffffff;fill-opacity:0.2;stroke:none;stroke-width:0.0955156;stroke-linecap:butt" />
			</g>
			<g
   id="shape8447-10"
   transform="translate(5.80265,-26.0482)">
				<title
   id="title28">path9-0</title>
				<path
   d="M 0,94.14 10.13,86.17 11.9,88.24 1.77,96.38 Z"
   class="st5"
   id="path30"
   inkscape:connector-curvature="0"
   style="fill:#ffffff;stroke:none;stroke-width:0.109072;stroke-linecap:butt" />
			</g>
			<g
   id="shape8448-12"
   transform="translate(2.33932,-26.0482)">
				<title
   id="title33">path9-0-9</title>
				<path
   d="M 5.24,96.38 0,90.81 2.33,88.78 7.64,94.5 Z"
   class="st6"
   id="path35"
   inkscape:connector-curvature="0"
   style="fill:#ffffff;stroke:none;stroke-width:0.0772262;stroke-linecap:butt" />
			</g>
			<g
   id="shape8449-14"
   transform="translate(6.2869,-36.6612)">
				<title
   id="title38">path9-0-5</title>
				<path
   d="M 0,94.14 10.13,86.17 11.9,88.24 1.77,96.38 Z"
   class="st5"
   id="path40"
   inkscape:connector-curvature="0"
   style="fill:#ffffff;stroke:none;stroke-width:0.109072;stroke-linecap:butt" />
			</g>
			<g
   id="shape8450-16"
   transform="translate(2.82357,-36.6612)">
				<title
   id="title43">path9-0-9-8</title>
				<path
   d="M 5.24,96.38 0,90.81 2.33,88.78 7.64,94.5 Z"
   class="st6"
   id="path45"
   inkscape:connector-curvature="0"
   style="fill:#ffffff;stroke:none;stroke-width:0.0772262;stroke-linecap:butt" />
			</g>
			<g
   id="shape8451-18"
   transform="translate(9.88607,-11.6081)">
				<title
   id="title48">path7-1</title>
				<path
   d="M 32.25,68.7 H 0 v 25.99 c 0,0.41 0.16,0.81 0.44,1.12 l -0.01,0.01 c 0.04,0.04 0.09,0.09 0.14,0.11 0.29,0.28 0.68,0.45 1.13,0.45 h 33.52 c 0.85,0 1.7,-0.7 1.7,-1.7 V 68.7 Z"
   class="st7"
   id="path50"
   inkscape:connector-curvature="0"
   style="fill:#509ccc;stroke:none;stroke-width:0.100536;stroke-linecap:butt" />
			</g>
			<g
   id="shape8452-20"
   transform="translate(26.059,-17.1503)">
				<title
   id="title53">path9-3</title>
				<path
   d="m 0,84.02 h 14.84 v 2.9 H 0 Z m 0,9.46 h 14.84 v 2.9 H 0 Z"
   class="st2"
   id="path55"
   inkscape:connector-curvature="0"
   style="fill:#ffffff;stroke:none;stroke-width:0.0943546;stroke-linecap:butt" />
			</g>
			<g
   id="shape8453-22"
   transform="translate(9.88607,-39.2855)">
				<title
   id="title58">path17-6</title>
				<path
   d="m 4.68,96.38 h 32.23 v -5.33 c 0,-0.6 -0.7,-1.21 -1.7,-1.21 H 1.7 c -0.85,0 -1.7,0.5 -1.7,1.21 v 5.33 z"
   class="st3"
   id="path60"
   inkscape:connector-curvature="0"
   style="fill:#a7a8a9;stroke:none;stroke-width:0.0847624;stroke-linecap:butt" />
			</g>
			<g
   id="shape8454-24"
   transform="translate(9.91074,-10.8728)">
				<title
   id="title63">path23-4</title>
				<path
   d="M 28.15,67.97 H 0 v 26.87 c 0,0.43 0.15,0.88 0.42,1.21 0.26,0.33 31.8,-28.08 31.8,-28.08 z"
   class="st4"
   id="path65"
   inkscape:connector-curvature="0"
   style="fill:#ffffff;fill-opacity:0.2;stroke:none;stroke-width:0.0955156;stroke-linecap:butt" />
			</g>
			<g
   id="shape8455-26"
   transform="translate(15.6887,-15.1754)">
				<title
   id="title68">path9-0-2</title>
				<path
   d="M 0,94.14 10.13,86.17 11.9,88.24 1.77,96.38 Z"
   class="st5"
   id="path70"
   inkscape:connector-curvature="0"
   style="fill:#ffffff;stroke:none;stroke-width:0.109072;stroke-linecap:butt" />
			</g>
			<g
   id="shape8456-28"
   transform="translate(12.2254,-15.1754)">
				<title
   id="title73">path9-0-9-5</title>
				<path
   d="M 5.24,96.38 0,90.81 2.33,88.78 7.64,94.5 Z"
   class="st6"
   id="path75"
   inkscape:connector-curvature="0"
   style="fill:#ffffff;stroke:none;stroke-width:0.0772262;stroke-linecap:butt" />
			</g>
			<g
   id="shape8457-30"
   transform="translate(16.173,-25.7884)">
				<title
   id="title78">path9-0-5-1</title>
				<path
   d="M 0,94.14 10.13,86.17 11.9,88.24 1.77,96.38 Z"
   class="st5"
   id="path80"
   inkscape:connector-curvature="0"
   style="fill:#ffffff;stroke:none;stroke-width:0.109072;stroke-linecap:butt" />
			</g>
			<g
   id="shape8458-32"
   transform="translate(12.7096,-25.7884)">
				<title
   id="title83">path9-0-9-8-4</title>
				<path
   d="M 5.24,96.38 0,90.81 2.33,88.78 7.64,94.5 Z"
   class="st6"
   id="path85"
   inkscape:connector-curvature="0"
   style="fill:#ffffff;stroke:none;stroke-width:0.0772262;stroke-linecap:butt" />
			</g>
			<g
   id="shape8459-34"
   transform="translate(26.059,-17.1503)">
				<title
   id="title88">path9-6</title>
				<path
   d="m 0,84.02 h 14.84 v 2.9 H 0 Z m 0,9.46 h 14.84 v 2.9 H 0 Z"
   class="st2"
   id="path90"
   inkscape:connector-curvature="0"
   style="fill:#ffffff;stroke:none;stroke-width:0.0943546;stroke-linecap:butt" />
			</g>
			<g
   id="shape8460-36"
   transform="translate(19.7721,-0.73524)">
				<title
   id="title93">path7-1-9</title>
				<path
   d="M 32.25,68.7 H 0 v 25.99 c 0,0.41 0.16,0.81 0.44,1.12 l -0.01,0.01 c 0.04,0.04 0.09,0.09 0.14,0.11 0.29,0.28 0.68,0.45 1.13,0.45 h 33.52 c 0.85,0 1.7,-0.7 1.7,-1.7 V 68.7 Z"
   class="st8"
   id="path95"
   inkscape:connector-curvature="0"
   style="fill:#59afd5;stroke:none;stroke-width:0.100536;stroke-linecap:butt" />
			</g>
			<g
   id="shape8461-38"
   transform="translate(35.9451,-6.27752)">
				<title
   id="title98">path9-3-0</title>
				<path
   d="m 0,84.02 h 14.84 v 2.9 H 0 Z m 0,9.46 h 14.84 v 2.9 H 0 Z"
   class="st2"
   id="path100"
   inkscape:connector-curvature="0"
   style="fill:#ffffff;stroke:none;stroke-width:0.0943546;stroke-linecap:butt" />
			</g>
			<g
   id="shape8462-40"
   transform="translate(19.7721,-28.4127)">
				<title
   id="title103">path17-6-4</title>
				<path
   d="m 4.68,96.38 h 32.23 v -5.33 c 0,-0.6 -0.7,-1.21 -1.7,-1.21 H 1.7 c -0.85,0 -1.7,0.5 -1.7,1.21 v 5.33 z"
   class="st3"
   id="path105"
   inkscape:connector-curvature="0"
   style="fill:#a7a8a9;stroke:none;stroke-width:0.0847624;stroke-linecap:butt" />
			</g>
			<g
   id="shape8463-42"
   transform="translate(19.7968)">
				<title
   id="title108">path23-4-1</title>
				<path
   d="M 28.15,67.97 H 0 v 26.87 c 0,0.43 0.15,0.88 0.42,1.21 0.26,0.33 31.8,-28.08 31.8,-28.08 z"
   class="st4"
   id="path110"
   inkscape:connector-curvature="0"
   style="fill:#ffffff;fill-opacity:0.2;stroke:none;stroke-width:0.0955156;stroke-linecap:butt" />
			</g>
			<g
   id="shape8464-44"
   transform="translate(25.5748,-4.3026)">
				<title
   id="title113">path9-0-2-5</title>
				<path
   d="M 0,94.14 10.13,86.17 11.9,88.24 1.77,96.38 Z"
   class="st5"
   id="path115"
   inkscape:connector-curvature="0"
   style="fill:#ffffff;stroke:none;stroke-width:0.109072;stroke-linecap:butt" />
			</g>
			<g
   id="shape8465-46"
   transform="translate(22.1115,-4.3026)">
				<title
   id="title118">path9-0-9-5-3</title>
				<path
   d="M 5.24,96.38 0,90.81 2.33,88.78 7.64,94.5 Z"
   class="st6"
   id="path120"
   inkscape:connector-curvature="0"
   style="fill:#ffffff;stroke:none;stroke-width:0.0772262;stroke-linecap:butt" />
			</g>
			<g
   id="shape8466-48"
   transform="translate(26.059,-14.9156)">
				<title
   id="title123">path9-0-5-1-4</title>
				<path
   d="M 0,94.14 10.13,86.17 11.9,88.24 1.77,96.38 Z"
   class="st5"
   id="path125"
   inkscape:connector-curvature="0"
   style="fill:#ffffff;stroke:none;stroke-width:0.109072;stroke-linecap:butt" />
			</g>
			<g
   id="shape8467-50"
   transform="translate(22.5957,-14.9156)">
				<title
   id="title128">path9-0-9-8-4-1</title>
				<path
   d="M 5.24,96.38 0,90.81 2.33,88.78 7.64,94.5 Z"
   class="st6"
   id="path130"
   inkscape:connector-curvature="0"
   style="fill:#ffffff;stroke:none;stroke-width:0.0772262;stroke-linecap:butt" />
			</g>
		</g>
	</g>
</svg>

<?xml version="1.0" encoding="UTF-8" standalone="no"?>
<!DOCTYPE svg PUBLIC "-//W3C//DTD SVG 1.1//EN" "http://www.w3.org/Graphics/SVG/1.1/DTD/svg11.dtd">
<!-- Generated by Microsoft Visio, SVG Export Azure Batch.svg Page-1 -->
<svg xmlns="http://www.w3.org/2000/svg" xmlns:xlink="http://www.w3.org/1999/xlink" xmlns:ev="http://www.w3.org/2001/xml-events"
		width="0.944882in" height="1.33858in" viewBox="0 0 68.0315 96.378" xml:space="preserve" color-interpolation-filters="sRGB"
		class="st9">
	<style type="text/css">
	<![CDATA[
		.st1 {fill:#177acd;stroke:none;stroke-linecap:butt;stroke-width:0.100536}
		.st2 {fill:#ffffff;stroke:none;stroke-linecap:butt;stroke-width:0.0943546}
		.st3 {fill:#a7a8a9;stroke:none;stroke-linecap:butt;stroke-width:0.0847624}
		.st4 {fill:#ffffff;fill-opacity:0.2;stroke:none;stroke-linecap:butt;stroke-width:0.0955156}
		.st5 {fill:#ffffff;stroke:none;stroke-linecap:butt;stroke-width:0.109072}
		.st6 {fill:#ffffff;stroke:none;stroke-linecap:butt;stroke-width:0.0772262}
		.st7 {fill:#509ccc;stroke:none;stroke-linecap:butt;stroke-width:0.100536}
		.st8 {fill:#59afd5;stroke:none;stroke-linecap:butt;stroke-width:0.100536}
		.st9 {fill:none;fill-rule:evenodd;font-size:12px;overflow:visible;stroke-linecap:square;stroke-miterlimit:3}
	]]>
	</style>

	<g>
		<title>Page-1</title>
		<g id="group8247-1" transform="translate(5.66929,-34.0157)">
			<title>Azure Batch</title>
			<g id="shape8248-2" transform="translate(0,-22.4809)">
				<title>path7</title>
				<path d="M32.25 68.7 L0 68.7 L0 94.69 C0 95.1 0.16 95.5 0.44 95.81 L0.43 95.82 C0.47 95.86 0.52 95.91 0.57 95.93
							 C0.86 96.21 1.25 96.38 1.7 96.38 L35.22 96.38 C36.07 96.38 36.92 95.68 36.92 94.68 L36.92 68.7 L32.25
							 68.7 Z" class="st1"/>
			</g>
			<g id="shape8249-4" transform="translate(16.173,-28.0231)">
				<title>path9</title>
				<path d="M0 84.02 L14.84 84.02 L14.84 86.92 L0 86.92 L0 84.02 ZM0 93.48 L14.84 93.48 L14.84 96.38 L0 96.38 L0 93.48
							 Z" class="st2"/>
			</g>
			<g id="shape8250-6" transform="translate(0,-50.1584)">
				<title>path17</title>
				<path d="M4.68 96.38 L36.91 96.38 L36.91 91.05 C36.91 90.45 36.21 89.84 35.21 89.84 L1.7 89.84 C0.85 89.84 0 90.34
							 0 91.05 L0 96.38 L4.68 96.38 Z" class="st3"/>
			</g>
			<g id="shape8251-8" transform="translate(0.0246706,-21.7456)">
				<title>path23</title>
				<path d="M28.15 67.97 L0 67.97 L0 94.84 C0 95.27 0.15 95.72 0.42 96.05 C0.68 96.38 32.22 67.97 32.22 67.97 L28.15
							 67.97 Z" class="st4"/>
			</g>
			<g id="shape8252-10" transform="translate(5.80265,-26.0482)">
				<title>path9-0</title>
				<path d="M0 94.14 L10.13 86.17 L11.9 88.24 L1.77 96.38 L0 94.14 Z" class="st5"/>
			</g>
			<g id="shape8253-12" transform="translate(2.33932,-26.0482)">
				<title>path9-0-9</title>
				<path d="M5.24 96.38 L0 90.81 L2.33 88.78 L7.64 94.5 L5.24 96.38 Z" class="st6"/>
			</g>
			<g id="shape8254-14" transform="translate(6.2869,-36.6612)">
				<title>path9-0-5</title>
				<path d="M0 94.14 L10.13 86.17 L11.9 88.24 L1.77 96.38 L0 94.14 Z" class="st5"/>
			</g>
			<g id="shape8255-16" transform="translate(2.82357,-36.6612)">
				<title>path9-0-9-8</title>
				<path d="M5.24 96.38 L0 90.81 L2.33 88.78 L7.64 94.5 L5.24 96.38 Z" class="st6"/>
			</g>
			<g id="shape8256-18" transform="translate(9.88607,-11.6081)">
				<title>path7-1</title>
				<path d="M32.25 68.7 L0 68.7 L0 94.69 C0 95.1 0.16 95.5 0.44 95.81 L0.43 95.82 C0.47 95.86 0.52 95.91 0.57 95.93
							 C0.86 96.21 1.25 96.38 1.7 96.38 L35.22 96.38 C36.07 96.38 36.92 95.68 36.92 94.68 L36.92 68.7 L32.25
							 68.7 Z" class="st7"/>
			</g>
			<g id="shape8257-20" transform="translate(26.059,-17.1503)">
				<title>path9-3</title>
				<path d="M0 84.02 L14.84 84.02 L14.84 86.92 L0 86.92 L0 84.02 ZM0 93.48 L14.84 93.48 L14.84 96.38 L0 96.38 L0 93.48
							 Z" class="st2"/>
			</g>
			<g id="shape8258-22" transform="translate(9.88607,-39.2855)">
				<title>path17-6</title>
				<path d="M4.68 96.38 L36.91 96.38 L36.91 91.05 C36.91 90.45 36.21 89.84 35.21 89.84 L1.7 89.84 C0.85 89.84 0 90.34
							 0 91.05 L0 96.38 L4.68 96.38 Z" class="st3"/>
			</g>
			<g id="shape8259-24" transform="translate(9.91074,-10.8728)">
				<title>path23-4</title>
				<path d="M28.15 67.97 L0 67.97 L0 94.84 C0 95.27 0.15 95.72 0.42 96.05 C0.68 96.38 32.22 67.97 32.22 67.97 L28.15
							 67.97 Z" class="st4"/>
			</g>
			<g id="shape8260-26" transform="translate(15.6887,-15.1754)">
				<title>path9-0-2</title>
				<path d="M0 94.14 L10.13 86.17 L11.9 88.24 L1.77 96.38 L0 94.14 Z" class="st5"/>
			</g>
			<g id="shape8261-28" transform="translate(12.2254,-15.1754)">
				<title>path9-0-9-5</title>
				<path d="M5.24 96.38 L0 90.81 L2.33 88.78 L7.64 94.5 L5.24 96.38 Z" class="st6"/>
			</g>
			<g id="shape8262-30" transform="translate(16.173,-25.7884)">
				<title>path9-0-5-1</title>
				<path d="M0 94.14 L10.13 86.17 L11.9 88.24 L1.77 96.38 L0 94.14 Z" class="st5"/>
			</g>
			<g id="shape8263-32" transform="translate(12.7096,-25.7884)">
				<title>path9-0-9-8-4</title>
				<path d="M5.24 96.38 L0 90.81 L2.33 88.78 L7.64 94.5 L5.24 96.38 Z" class="st6"/>
			</g>
			<g id="shape8264-34" transform="translate(26.059,-17.1503)">
				<title>path9-6</title>
				<path d="M0 84.02 L14.84 84.02 L14.84 86.92 L0 86.92 L0 84.02 ZM0 93.48 L14.84 93.48 L14.84 96.38 L0 96.38 L0 93.48
							 Z" class="st2"/>
			</g>
			<g id="shape8265-36" transform="translate(19.7721,-0.73524)">
				<title>path7-1-9</title>
				<path d="M32.25 68.7 L0 68.7 L0 94.69 C0 95.1 0.16 95.5 0.44 95.81 L0.43 95.82 C0.47 95.86 0.52 95.91 0.57 95.93
							 C0.86 96.21 1.25 96.38 1.7 96.38 L35.22 96.38 C36.07 96.38 36.92 95.68 36.92 94.68 L36.92 68.7 L32.25
							 68.7 Z" class="st8"/>
			</g>
			<g id="shape8266-38" transform="translate(35.9451,-6.27752)">
				<title>path9-3-0</title>
				<path d="M0 84.02 L14.84 84.02 L14.84 86.92 L0 86.92 L0 84.02 ZM0 93.48 L14.84 93.48 L14.84 96.38 L0 96.38 L0 93.48
							 Z" class="st2"/>
			</g>
			<g id="shape8267-40" transform="translate(19.7721,-28.4127)">
				<title>path17-6-4</title>
				<path d="M4.68 96.38 L36.91 96.38 L36.91 91.05 C36.91 90.45 36.21 89.84 35.21 89.84 L1.7 89.84 C0.85 89.84 0 90.34
							 0 91.05 L0 96.38 L4.68 96.38 Z" class="st3"/>
			</g>
			<g id="shape8268-42" transform="translate(19.7968,-2.55795E-13)">
				<title>path23-4-1</title>
				<path d="M28.15 67.97 L0 67.97 L0 94.84 C0 95.27 0.15 95.72 0.42 96.05 C0.68 96.38 32.22 67.97 32.22 67.97 L28.15
							 67.97 Z" class="st4"/>
			</g>
			<g id="shape8269-44" transform="translate(25.5748,-4.3026)">
				<title>path9-0-2-5</title>
				<path d="M0 94.14 L10.13 86.17 L11.9 88.24 L1.77 96.38 L0 94.14 Z" class="st5"/>
			</g>
			<g id="shape8270-46" transform="translate(22.1115,-4.3026)">
				<title>path9-0-9-5-3</title>
				<path d="M5.24 96.38 L0 90.81 L2.33 88.78 L7.64 94.5 L5.24 96.38 Z" class="st6"/>
			</g>
			<g id="shape8271-48" transform="translate(26.059,-14.9156)">
				<title>path9-0-5-1-4</title>
				<path d="M0 94.14 L10.13 86.17 L11.9 88.24 L1.77 96.38 L0 94.14 Z" class="st5"/>
			</g>
			<g id="shape8272-50" transform="translate(22.5957,-14.9156)">
				<title>path9-0-9-8-4-1</title>
				<path d="M5.24 96.38 L0 90.81 L2.33 88.78 L7.64 94.5 L5.24 96.38 Z" class="st6"/>
			</g>
		</g>
	</g>
</svg>
